src/icons/4x4.svg

<svg xmlns="http://www.w3.org/2000/svg" width="512" height="512" viewBox="0 0 512 512">
    <path d="M356.3 349.8H416v59.7h-59.7v-59.7zm-86.7 0h59.7v59.7h-59.7v-59.7zm-86.8 0h59.7v59.7h-59.7v-59.7zm-86.8 0h59.7v59.7H96v-59.7zm260.3-86.7H416v59.7h-59.7v-59.7zm-86.7 0h59.7v59.7h-59.7v-59.7zm-86.8 0h59.7v59.7h-59.7v-59.7zm-86.8 0h59.7v59.7H96v-59.7zm260.3-86.8H416V236h-59.7v-59.7zm-86.7 0h59.7V236h-59.7v-59.7zm-86.8 0h59.7V236h-59.7v-59.7zm-86.8 0h59.7V236H96v-59.7zm260.3-86.8H416v59.7h-59.7V89.5zm-86.7 0h59.7v59.7h-59.7V89.5zm-86.8 0h59.7v59.7h-59.7V89.5zm-86.8 0h59.7v59.7H96V89.5z"/>
</svg>

<?xml version="1.0" encoding="UTF-8"?>
<svg width="512px" height="512px" viewBox="0 0 512 512" version="1.1" xmlns="http://www.w3.org/2000/svg" xmlns:xlink="http://www.w3.org/1999/xlink">
    <!-- Generator: Sketch 62 (91390) - https://sketch.com -->
    <title>4x4</title>
    <desc>Created with Sketch.</desc>
    <g id="4x4" stroke="none" stroke-width="1" fill="none" fill-rule="evenodd">
        <path d="M356.3,349.8 L416,349.8 L416,409.5 L356.3,409.5 L356.3,349.8 Z M269.6,349.8 L329.3,349.8 L329.3,409.5 L269.6,409.5 L269.6,349.8 Z M182.8,349.8 L242.5,349.8 L242.5,409.5 L182.8,409.5 L182.8,349.8 Z M96,349.8 L155.7,349.8 L155.7,409.5 L96,409.5 L96,349.8 L96,349.8 Z M356.3,263.1 L416,263.1 L416,322.8 L356.3,322.8 L356.3,263.1 Z M269.6,263.1 L329.3,263.1 L329.3,322.8 L269.6,322.8 L269.6,263.1 Z M182.8,263.1 L242.5,263.1 L242.5,322.8 L182.8,322.8 L182.8,263.1 Z M96,263.1 L155.7,263.1 L155.7,322.8 L96,322.8 L96,263.1 L96,263.1 Z M356.3,176.3 L416,176.3 L416,236 L356.3,236 L356.3,176.3 Z M269.6,176.3 L329.3,176.3 L329.3,236 L269.6,236 L269.6,176.3 Z M182.8,176.3 L242.5,176.3 L242.5,236 L182.8,236 L182.8,176.3 Z M96,176.3 L155.7,176.3 L155.7,236 L96,236 L96,176.3 L96,176.3 Z M356.3,89.5 L416,89.5 L416,149.2 L356.3,149.2 L356.3,89.5 Z M269.6,89.5 L329.3,89.5 L329.3,149.2 L269.6,149.2 L269.6,89.5 Z M182.8,89.5 L242.5,89.5 L242.5,149.2 L182.8,149.2 L182.8,89.5 Z M96,89.5 L155.7,89.5 L155.7,149.2 L96,149.2 L96,89.5 Z" id="Shape" fill="#000000" fill-rule="nonzero"></path>
    </g>
</svg>
